X: 43
P: No. XLIII.
M: 6/8
L: 1/8
K: F	% and Dm
V: 1
f |\
cAA A>GF | cAA A2f | cAA A>GA | FDD D2 :||: z | f3 g>fg | afd cBA |
f3 g>fg | afd d2f/g/ | agf gfe | fed def | cBA A>GA | FDD D2 :|
V: 2 clef=bass middle=d
z |\
f2z F2z | f2z F2z | f2z c2z | d2z D2 :: z | A2z c2z | f2z F2z |

